;FLAVOR:Marlin
;TIME:3888
;Filament used: 3.21081m
;Layer height: 0.2
;MINX:79.809
;MINY:112.6
;MINZ:0.2
;MAXX:220.209
;MAXY:187.4
;MAXZ:7
;Generated with Cura_SteamEngine 4.10.0
M140 S60
M105
M190 S60
M104 S205
M105
M109 S205
M82 ;absolute extrusion mode
G21 ;metric values
G90 ;absolute positioning
M82 ;set extruder to absolute mode
M107 ;start with the fan off
G28 X0 Y0 ;move X/Y to min endstops
G28 Z0 ;move Z to min endstops
G1 Z10.0 F600 ;move the platform down 10mm
G92 E0 ;zero the extruded length
G1 F200 E3 ;extrude 3mm of feed stock
G92 E0 ;zero the extruded length again
G1 Y-3 F1200 ;move to prime
G1 X10 F1200 ;
G1 Z0.1 F600 ;get ready to prime
G1 X120 E15 F1200 ;prime nozzle 
G1 X120 F3600 ;quick wipe
G92 E0 ;zero the extruded length
G5 ;enable resume from power failure
M117 Printing...
G92 E0
G92 E0
G1 F5100 E-4
;LAYER_COUNT:35
;LAYER:0
M107
M204 S1500
M205 X15 Y15
G0 F4320 X82.867 Y136.966 Z0.2
M204 S750
M205 X10 Y10
;TYPE:SKIRT
G1 F2040 E0
G1 F2400 X83.493 Y136.643 E0.02811
G1 X84.28 Y136.354 E0.06158
G1 X85.128 Y136.107 E0.09683
G1 X86.34 Y135.772 E0.14702
G1 X88.862 Y134.995 E0.25234
G1 X91.375 Y134.143 E0.35825
G1 X92.545 Y133.711 E0.40803
G1 X93.261 Y133.458 E0.43834
G1 X93.93 Y133.263 E0.46615
G1 X94.762 Y133.072 E0.50022
G1 X95.857 Y132.835 E0.54494
G1 X98.427 Y132.203 E0.65057
G1 X100.991 Y131.498 E0.7567
G1 X103.535 Y130.715 E0.86294
G1 X106.048 Y129.864 E0.96883
G1 X108.507 Y128.955 E1.07347
G1 X110.989 Y127.957 E1.18024
G1 X113.441 Y126.889 E1.28698
G1 X115.823 Y125.77 E1.39202
G1 X118.177 Y124.582 E1.49726
G1 X120.533 Y123.308 E1.60416
G1 X122.804 Y121.995 E1.70886
G1 X125.099 Y120.579 E1.81649
G1 X127.296 Y119.139 E1.92133
G1 X129.461 Y117.63 E2.02666
G1 X131.618 Y116.034 E2.13376
G1 X134.26 Y113.946 E2.26816
G1 X134.836 Y113.541 E2.29626
G1 X135.454 Y113.205 E2.32434
G1 X136.107 Y112.941 E2.35245
G1 X136.785 Y112.752 E2.38054
G1 X137.48 Y112.641 E2.40863
G1 X138.047 Y112.608 E2.4313
G1 X138.587 Y112.6 E2.45286
G1 X161.16 Y112.6 E3.35379
G1 X161.951 Y112.611 E3.38537
G1 X162.653 Y112.661 E3.41346
G1 X163.345 Y112.79 E3.44155
G1 X164.018 Y112.997 E3.46965
G1 X164.663 Y113.279 E3.49775
G1 X165.272 Y113.632 E3.52585
G1 X165.819 Y114.036 E3.55299
G1 X166.434 Y114.547 E3.5849
G1 X167.367 Y115.344 E3.63388
G1 X169.422 Y117.002 E3.73926
G1 X171.541 Y118.617 E3.8456
G1 X173.702 Y120.168 E3.95176
G1 X175.87 Y121.632 E4.05617
G1 X178.136 Y123.072 E4.16333
G1 X180.437 Y124.443 E4.27024
G1 X182.712 Y125.715 E4.37427
G1 X185.083 Y126.952 E4.481
G1 X187.467 Y128.112 E4.58682
G1 X189.872 Y129.199 E4.69216
G1 X192.362 Y130.24 E4.79987
G1 X194.809 Y131.186 E4.90458
G1 X197.302 Y132.064 E5.01007
G1 X199.849 Y132.884 E5.11687
G1 X202.375 Y133.619 E5.22187
G1 X204.93 Y134.284 E5.32724
G1 X207.55 Y134.888 E5.43455
G1 X210.144 Y135.411 E5.54017
G1 X212.756 Y135.857 E5.64593
G1 X214.327 Y136.081 E5.70927
G1 X214.963 Y136.181 E5.73496
G1 X215.651 Y136.33 E5.76306
G1 X216.318 Y136.556 E5.79117
G1 X216.955 Y136.855 E5.81925
G1 X217.554 Y137.226 E5.84737
G1 X218.107 Y137.661 E5.87545
G1 X218.607 Y138.157 E5.90356
G1 X219.048 Y138.706 E5.93167
G1 X219.423 Y139.301 E5.95974
G1 X219.729 Y139.935 E5.98784
G1 X219.961 Y140.6 E6.01595
G1 X220.116 Y141.287 E6.04406
G1 X220.198 Y142.132 E6.07794
G1 X220.209 Y142.627 E6.0977
G1 X220.209 Y160.038 E6.79261
G1 X220.2 Y160.765 E6.82163
G1 X220.151 Y161.467 E6.84972
G1 X220.023 Y162.159 E6.87781
G1 X219.817 Y162.833 E6.90593
G1 X219.537 Y163.478 E6.934
G1 X219.185 Y164.088 E6.96211
G1 X218.766 Y164.654 E6.99022
G1 X218.286 Y165.168 E7.01828
G1 X217.75 Y165.625 E7.0464
G1 X217.166 Y166.019 E7.07451
G1 X216.541 Y166.343 E7.10261
G1 X215.884 Y166.595 E7.1307
G1 X215.202 Y166.77 E7.1588
G1 X214.233 Y166.902 E7.19783
G1 X212.35 Y167.093 E7.27337
G1 X209.694 Y167.436 E7.38026
G1 X207.111 Y167.846 E7.48464
G1 X204.494 Y168.336 E7.59091
G1 X201.917 Y168.896 E7.69616
G1 X199.311 Y169.539 E7.80329
G1 X196.767 Y170.244 E7.90866
G1 X194.237 Y171.022 E8.0143
G1 X191.709 Y171.879 E8.12084
G1 X189.221 Y172.801 E8.22674
G1 X186.767 Y173.791 E8.33235
G1 X184.324 Y174.858 E8.43875
G1 X181.939 Y175.981 E8.54397
G1 X179.572 Y177.177 E8.64981
G1 X177.243 Y178.44 E8.75556
G1 X174.937 Y179.776 E8.86193
G1 X172.686 Y181.164 E8.96748
G1 X170.465 Y182.624 E9.07356
G1 X168.307 Y184.132 E9.17863
G1 X165.583 Y186.162 E9.31422
G1 X164.995 Y186.549 E9.34232
G1 X164.367 Y186.868 E9.37043
G1 X163.708 Y187.114 E9.39851
G1 X163.024 Y187.283 E9.42663
G1 X162.087 Y187.386 E9.46425
G1 X161.397 Y187.4 E9.4918
G1 X138.736 Y187.399 E10.39625
G1 X138.033 Y187.389 E10.42431
G1 X137.331 Y187.339 E10.4524
G1 X136.639 Y187.21 E10.48049
G1 X135.966 Y187.003 E10.50859
G1 X135.321 Y186.721 E10.53669
G1 X134.44 Y186.179 E10.57798
G1 X133.871 Y185.759 E10.6062
G1 X132.623 Y184.81 E10.66878
G1 X130.505 Y183.291 E10.7728
G1 X128.288 Y181.794 E10.87957
G1 X126.07 Y180.385 E10.98445
G1 X123.779 Y179.022 E11.09085
G1 X121.441 Y177.717 E11.19771
G1 X119.12 Y176.506 E11.3022
G1 X116.721 Y175.341 E11.40864
G1 X114.31 Y174.253 E11.51422
G1 X111.838 Y173.219 E11.62116
G1 X109.342 Y172.256 E11.72794
G1 X106.886 Y171.392 E11.83185
G1 X104.369 Y170.584 E11.93736
G1 X101.778 Y169.831 E12.04505
G1 X99.247 Y169.173 E12.14943
G1 X96.67 Y168.58 E12.25497
G1 X94.014 Y168.046 E12.3631
G1 X91.424 Y167.605 E12.46796
G1 X88.805 Y167.233 E12.57354
G1 X86.162 Y166.933 E12.6797
G1 X85.397 Y166.856 E12.71039
G1 X84.702 Y166.746 E12.73847
G1 X84.023 Y166.557 E12.7666
G1 X83.371 Y166.293 E12.79468
G1 X82.752 Y165.957 E12.82279
G1 X82.176 Y165.553 E12.85087
G1 X81.649 Y165.086 E12.87897
G1 X81.178 Y164.562 E12.9071
G1 X80.77 Y163.989 E12.93517
G1 X80.43 Y163.373 E12.96325
G1 X80.161 Y162.722 E12.99137
G1 X79.969 Y162.045 E13.01945
G1 X79.854 Y161.35 E13.04757
G1 X79.811 Y160.523 E13.08062
G1 X79.809 Y160.355 E13.08733
G1 X79.81 Y142.878 E13.78487
G1 X79.82 Y142.212 E13.81146
G1 X79.87 Y141.51 E13.83955
G1 X80 Y140.818 E13.86765
G1 X80.207 Y140.145 E13.89575
G1 X80.49 Y139.5 E13.92386
G1 X80.843 Y138.891 E13.95196
G1 X81.264 Y138.327 E13.98005
G1 X81.745 Y137.813 E14.00814
G1 X82.282 Y137.358 E14.03624
G1 X82.867 Y136.966 E14.06434
M204 S1500
M205 X15 Y15
G0 F4320 X83.321 Y137.261
M204 S750
M205 X10 Y10
G1 F2400 X83.935 Y136.978 E14.09133
G1 X84.414 Y136.815 E14.11152
G1 X85.256 Y136.569 E14.14653
G1 X86.478 Y136.231 E14.19713
G1 X89.038 Y135.442 E14.30405
G1 X91.555 Y134.589 E14.41012
G1 X92.705 Y134.164 E14.45906
G1 X93.421 Y133.911 E14.48937
G1 X94.039 Y133.731 E14.51506
G1 X94.864 Y133.541 E14.54885
G1 X95.966 Y133.303 E14.59384
G1 X98.553 Y132.666 E14.70018
G1 X101.127 Y131.958 E14.80673
G1 X103.689 Y131.17 E14.91371
G1 X106.196 Y130.321 E15.01935
G1 X108.7 Y129.396 E15.12589
G1 X111.188 Y128.394 E15.23295
G1 X113.594 Y127.347 E15.33767
G1 X116.028 Y126.203 E15.44501
G1 X118.434 Y124.989 E15.55258
G1 X120.748 Y123.738 E15.65756
G1 X123.066 Y122.398 E15.76443
G1 X125.331 Y121.001 E15.87064
G1 X127.568 Y119.535 E15.97739
G1 X129.745 Y118.016 E16.08334
G1 X131.893 Y116.428 E16.18995
G1 X134.557 Y114.322 E16.32549
G1 X135.112 Y113.935 E16.3525
G1 X135.708 Y113.616 E16.37948
G1 X136.337 Y113.37 E16.40643
G1 X136.992 Y113.199 E16.43345
G1 X137.913 Y113.093 E16.47045
G1 X138.593 Y113.08 E16.4976
G1 X161.16 Y113.08 E17.3983
G1 X161.944 Y113.091 E17.42959
G1 X162.619 Y113.14 E17.4566
G1 X163.282 Y113.269 E17.48356
G1 X163.926 Y113.475 E17.51055
G1 X164.542 Y113.756 E17.53757
G1 X165.119 Y114.107 E17.56453
G1 X165.513 Y114.406 E17.58427
G1 X166.122 Y114.912 E17.61587
G1 X167.036 Y115.693 E17.66385
G1 X169.151 Y117.4 E17.77233
G1 X171.252 Y119 E17.87773
G1 X173.412 Y120.55 E17.98384
G1 X175.626 Y122.046 E18.09049
G1 X177.899 Y123.491 E18.19799
G1 X180.144 Y124.828 E18.30228
G1 X182.524 Y126.159 E18.41112
G1 X184.865 Y127.38 E18.5165
G1 X187.261 Y128.546 E18.62285
G1 X189.686 Y129.642 E18.72906
G1 X192.144 Y130.67 E18.8354
G1 X194.668 Y131.645 E18.94339
G1 X197.147 Y132.519 E19.0483
G1 X199.709 Y133.343 E19.15572
G1 X202.261 Y134.086 E19.2618
G1 X204.809 Y134.75 E19.36689
G1 X207.455 Y135.359 E19.47526
G1 X210.063 Y135.885 E19.58145
G1 X212.651 Y136.326 E19.68623
G1 X214.252 Y136.555 E19.75078
G1 X214.888 Y136.655 E19.77648
G1 X215.549 Y136.8 E19.80349
G1 X216.188 Y137.021 E19.83047
G1 X216.796 Y137.316 E19.85744
G1 X217.366 Y137.681 E19.88446
G1 X217.888 Y138.11 E19.91143
G1 X218.356 Y138.599 E19.93844
G1 X218.763 Y139.138 E19.9654
G1 X219.103 Y139.723 E19.9924
G1 X219.373 Y140.343 E20.01939
G1 X219.567 Y140.991 E20.04639
G1 X219.683 Y141.657 E20.07337
G1 X219.727 Y142.467 E20.10575
G1 X219.729 Y142.627 E20.11214
G1 X219.729 Y160.032 E20.80681
G1 X219.72 Y160.759 E20.83583
G1 X219.671 Y161.433 E20.8628
G1 X219.544 Y162.097 E20.88978
G1 X219.339 Y162.742 E20.91679
G1 X219.059 Y163.357 E20.94376
G1 X218.709 Y163.936 E20.97077
G1 X218.293 Y164.469 E20.99775
G1 X217.816 Y164.949 E21.02476
G1 X217.287 Y165.369 E21.05172
G1 X216.712 Y165.724 E21.07869
G1 X216.098 Y166.009 E21.10571
G1 X215.456 Y166.22 E21.13268
G1 X214.655 Y166.37 E21.1652
G1 X214.096 Y166.434 E21.18766
G1 X212.309 Y166.614 E21.25935
G1 X209.624 Y166.961 E21.3674
G1 X207.02 Y167.375 E21.47264
G1 X204.411 Y167.863 E21.57857
G1 X201.808 Y168.429 E21.68489
G1 X199.176 Y169.078 E21.79309
G1 X196.639 Y169.781 E21.89816
G1 X194.083 Y170.567 E22.00489
G1 X191.561 Y171.422 E22.11118
G1 X189.059 Y172.349 E22.21767
G1 X186.568 Y173.354 E22.32488
G1 X184.142 Y174.414 E22.43054
G1 X181.733 Y175.548 E22.53681
G1 X179.328 Y176.764 E22.64437
G1 X176.988 Y178.031 E22.75058
G1 X174.701 Y179.356 E22.85607
G1 X172.436 Y180.754 E22.96231
G1 X170.185 Y182.234 E23.06983
G1 X168.033 Y183.738 E23.17462
G1 X165.296 Y185.777 E23.31084
G1 X164.731 Y186.148 E23.33781
G1 X164.126 Y186.45 E23.3648
G1 X163.489 Y186.678 E23.39181
G1 X162.83 Y186.83 E23.4188
G1 X162.071 Y186.907 E23.44925
G1 X161.391 Y186.92 E23.47639
G1 X138.743 Y186.919 E24.38032
G1 X138.04 Y186.909 E24.40838
G1 X137.365 Y186.86 E24.4354
G1 X136.702 Y186.731 E24.46235
G1 X136.058 Y186.525 E24.48934
G1 X135.442 Y186.244 E24.51636
G1 X134.725 Y185.793 E24.55017
G1 X134.162 Y185.377 E24.57811
G1 X132.912 Y184.426 E24.6408
G1 X130.771 Y182.891 E24.74594
G1 X128.572 Y181.406 E24.85185
G1 X126.305 Y179.967 E24.95902
G1 X124.027 Y178.611 E25.06483
G1 X121.682 Y177.302 E25.17201
G1 X119.323 Y176.071 E25.27822
G1 X116.929 Y174.908 E25.38444
G1 X114.478 Y173.802 E25.49177
G1 X112.024 Y172.776 E25.59793
G1 X109.542 Y171.819 E25.7041
G1 X107.019 Y170.931 E25.81085
G1 X104.498 Y170.122 E25.91652
G1 X101.933 Y169.376 E26.02314
G1 X99.334 Y168.7 E26.13032
G1 X96.764 Y168.109 E26.23558
G1 X94.121 Y167.578 E26.34317
G1 X91.499 Y167.131 E26.44933
G1 X88.888 Y166.76 E26.55459
G1 X86.138 Y166.448 E26.66505
G1 X85.445 Y166.378 E26.69285
G1 X84.778 Y166.271 E26.71981
G1 X84.127 Y166.085 E26.74683
G1 X83.503 Y165.825 E26.77382
G1 X82.915 Y165.492 E26.80079
G1 X82.369 Y165.092 E26.8278
G1 X81.875 Y164.631 E26.85477
G1 X81.439 Y164.115 E26.88173
G1 X81.066 Y163.55 E26.90875
G1 X80.763 Y162.946 E26.93572
G1 X80.533 Y162.31 E26.96272
G1 X80.38 Y161.651 E26.98972
G1 X80.3 Y160.842 E27.02216
G1 X80.289 Y160.355 E27.04161
G1 X80.29 Y142.885 E27.73887
G1 X80.3 Y142.219 E27.76546
G1 X80.35 Y141.545 E27.79243
G1 X80.479 Y140.881 E27.81943
G1 X80.686 Y140.237 E27.84643
G1 X80.967 Y139.622 E27.87341
G1 X81.319 Y139.045 E27.90039
G1 X81.736 Y138.513 E27.92737
G1 X82.214 Y138.034 E27.95438
G1 X82.744 Y137.615 E27.98134
G1 X83.321 Y137.261 E28.00836
M204 S1500
M205 X15 Y15
G0 F4320 X83.204 Y137.885
M204 S750
M205 X10 Y10
G1 F2400 X83.77 Y137.572 E28.03417
G1 X84.549 Y137.275 E28.06745
G1 X85.384 Y137.032 E28.10216
G1 X86.606 Y136.694 E28.15276
G1 X89.16 Y135.907 E28.25943
G1 X91.723 Y135.039 E28.36743
G1 X92.865 Y134.616 E28.41604
G1 X93.581 Y134.363 E28.44634
G1 X94.147 Y134.199 E28.46986
G1 X94.965 Y134.01 E28.50337
G1 X96.074 Y133.771 E28.54865
G1 X98.687 Y133.127 E28.65606
G1 X101.264 Y132.418 E28.76274
G1 X103.81 Y131.635 E28.86905
G1 X106.364 Y130.771 E28.97666
G1 X108.885 Y129.839 E29.08394
G1 X111.362 Y128.842 E29.19051
G1 X113.817 Y127.773 E29.29738
G1 X116.248 Y126.63 E29.40459
G1 X118.622 Y125.433 E29.51071
G1 X121.001 Y124.146 E29.61866
G1 X123.316 Y122.808 E29.72538
G1 X125.589 Y121.407 E29.83195
G1 X127.84 Y119.931 E29.93938
G1 X130.024 Y118.408 E30.04565
G1 X132.188 Y116.806 E30.15312
G1 X134.855 Y114.699 E30.28877
G1 X135.386 Y114.33 E30.31458
G1 X135.959 Y114.029 E30.34041
G1 X136.565 Y113.801 E30.36625
G1 X137.194 Y113.65 E30.39207
G1 X137.929 Y113.573 E30.42157
G1 X138.599 Y113.56 E30.44831
G1 X161.16 Y113.56 E31.34877
G1 X161.938 Y113.571 E31.37983
G1 X162.583 Y113.62 E31.40565
G1 X163.217 Y113.748 E31.43146
G1 X163.831 Y113.954 E31.45731
G1 X164.414 Y114.233 E31.4831
G1 X165.207 Y114.775 E31.52144
G1 X165.81 Y115.276 E31.55273
G1 X166.748 Y116.077 E31.60196
G1 X168.859 Y117.781 E31.71024
G1 X170.964 Y119.384 E31.81584
G1 X173.13 Y120.938 E31.92224
G1 X175.383 Y122.461 E32.03078
G1 X177.614 Y123.879 E32.13629
G1 X179.937 Y125.263 E32.24421
G1 X182.268 Y126.566 E32.3508
G1 X184.643 Y127.805 E32.45771
G1 X187.068 Y128.985 E32.56535
G1 X189.505 Y130.087 E32.6721
G1 X191.97 Y131.118 E32.77874
G1 X194.507 Y132.098 E32.88729
G1 X196.981 Y132.97 E32.99198
G1 X199.569 Y133.803 E33.1005
G1 X202.106 Y134.541 E33.20595
G1 X204.731 Y135.224 E33.31421
G1 X207.326 Y135.823 E33.4205
G1 X209.988 Y136.359 E33.52888
G1 X212.57 Y136.799 E33.63342
G1 X214.178 Y137.03 E33.69826
G1 X214.814 Y137.13 E33.72395
G1 X215.446 Y137.269 E33.74978
G1 X216.056 Y137.486 E33.77562
G1 X216.634 Y137.776 E33.80143
G1 X217.172 Y138.135 E33.82725
G1 X217.662 Y138.558 E33.85308
G1 X218.096 Y139.038 E33.87891
G1 X218.468 Y139.568 E33.90476
G1 X218.771 Y140.14 E33.93059
G1 X219.002 Y140.744 E33.9564
G1 X219.156 Y141.373 E33.98225
G1 X219.238 Y142.159 E34.01379
G1 X219.249 Y142.627 E34.03247
G1 X219.249 Y160.026 E34.7269
G1 X219.24 Y160.753 E34.75592
G1 X219.192 Y161.398 E34.78174
G1 X219.065 Y162.033 E34.80758
G1 X218.86 Y162.647 E34.83342
G1 X218.582 Y163.231 E34.85923
G1 X218.233 Y163.776 E34.88506
G1 X217.82 Y164.275 E34.91092
G1 X217.349 Y164.718 E34.93672
G1 X216.827 Y165.1 E34.96254
G1 X216.261 Y165.415 E34.98839
G1 X215.661 Y165.658 E35.01423
G1 X215.036 Y165.825 E35.04005
G1 X214.123 Y165.949 E35.07682
G1 X212.237 Y166.139 E35.15248
G1 X209.556 Y166.486 E35.26038
G1 X206.93 Y166.903 E35.3665
G1 X204.322 Y167.392 E35.4724
G1 X201.699 Y167.961 E35.57953
G1 X199.074 Y168.608 E35.68743
G1 X196.478 Y169.328 E35.79496
G1 X193.961 Y170.102 E35.90006
G1 X191.393 Y170.973 E36.00829
G1 X188.873 Y171.907 E36.11555
G1 X186.381 Y172.912 E36.2228
G1 X183.946 Y173.975 E36.32884
G1 X181.497 Y175.128 E36.43688
G1 X179.124 Y176.328 E36.54301
G1 X176.776 Y177.6 E36.64959
G1 X174.45 Y178.947 E36.75687
G1 X172.162 Y180.359 E36.86418
G1 X169.928 Y181.828 E36.97089
G1 X167.738 Y183.359 E37.07754
G1 X165.009 Y185.392 E37.21336
G1 X164.467 Y185.746 E37.2392
G1 X163.886 Y186.03 E37.26501
G1 X163.274 Y186.241 E37.29085
G1 X162.641 Y186.374 E37.31667
G1 X162.055 Y186.427 E37.34015
G1 X161.385 Y186.44 E37.3669
G1 X138.749 Y186.439 E38.27035
G1 X138.046 Y186.429 E38.29841
G1 X137.401 Y186.38 E38.32423
G1 X136.767 Y186.252 E38.35004
G1 X136.153 Y186.046 E38.37589
G1 X135.57 Y185.767 E38.40169
G1 X135.01 Y185.406 E38.42828
G1 X134.453 Y184.995 E38.45591
G1 X133.217 Y184.055 E38.51788
G1 X131.037 Y182.491 E38.62497
G1 X128.824 Y180.997 E38.73154
G1 X126.567 Y179.564 E38.83824
G1 X124.265 Y178.194 E38.94516
G1 X121.896 Y176.872 E39.05344
G1 X119.54 Y175.643 E39.15949
G1 X117.135 Y174.474 E39.26622
G1 X114.676 Y173.365 E39.37389
G1 X112.21 Y172.333 E39.48058
G1 X109.691 Y171.362 E39.58833
G1 X107.184 Y170.48 E39.6944
G1 X104.638 Y169.662 E39.80113
G1 X102.046 Y168.909 E39.90886
G1 X99.488 Y168.244 E40.01435
G1 X96.824 Y167.631 E40.12346
G1 X94.229 Y167.109 E40.2291
G1 X91.574 Y166.657 E40.33659
G1 X88.942 Y166.283 E40.4427
G1 X86.22 Y165.974 E40.55204
G1 X85.493 Y165.901 E40.5812
G1 X84.855 Y165.796 E40.60701
G1 X84.234 Y165.614 E40.63283
G1 X83.64 Y165.356 E40.65868
G1 X83.083 Y165.028 E40.68448
G1 X82.57 Y164.633 E40.71032
