;FLAVOR:Marlin
;TIME:8039
;Filament used: 7.06767m
;Layer height: 0.2
;MINX:101.803
;MINY:69.8
;MINZ:0.2
;MAXX:198.197
;MAXY:232.2
;MAXZ:2
;Generated with Cura_SteamEngine 4.10.0
M140 S60
M105
M190 S60
M104 S205
M105
M109 S205
M82 ;absolute extrusion mode
G21 ;metric values
G90 ;absolute positioning
M82 ;set extruder to absolute mode
M107 ;start with the fan off
G28 X0 Y0 ;move X/Y to min endstops
G28 Z0 ;move Z to min endstops
G1 Z10.0 F600 ;move the platform down 10mm
G92 E0 ;zero the extruded length
G1 F200 E3 ;extrude 3mm of feed stock
G92 E0 ;zero the extruded length again
G1 Y-3 F1200 ;move to prime
G1 X10 F1200 ;
G1 Z0.1 F600 ;get ready to prime
G1 X120 E15 F1200 ;prime nozzle 
G1 X120 F3600 ;quick wipe
G92 E0 ;zero the extruded length
G5 ;enable resume from power failure
M117 Printing...
G92 E0
G92 E0
G1 F5100 E-4
;LAYER_COUNT:10
;LAYER:0
M107
M204 S1500
M205 X15 Y15
G0 F4320 X104.836 Y72.595 Z0.2
M204 S750
M205 X10 Y10
;TYPE:SKIRT
G1 F2040 E0
G1 F2400 X105.256 Y72.03 E0.0281
G1 X105.738 Y71.517 E0.05619
G1 X106.275 Y71.061 E0.08431
G1 X106.86 Y70.67 E0.11239
G1 X107.485 Y70.347 E0.14047
G1 X108.143 Y70.097 E0.16857
G1 X108.826 Y69.923 E0.1967
G1 X109.836 Y69.811 E0.23726
G1 X110.33 Y69.8 E0.25698
G1 X189.293 Y69.8 E3.40856
G1 X190.08 Y69.811 E3.43998
G1 X190.782 Y69.861 E3.46807
G1 X191.474 Y69.99 E3.49616
G1 X192.147 Y70.197 E3.52426
G1 X192.792 Y70.479 E3.55236
G1 X193.401 Y70.832 E3.58045
G1 X193.966 Y71.252 E3.60855
G1 X194.48 Y71.733 E3.63665
G1 X194.936 Y72.27 E3.66477
G1 X195.328 Y72.854 E3.69284
G1 X195.651 Y73.48 E3.72095
G1 X195.902 Y74.138 E3.74906
G1 X196.076 Y74.82 E3.77715
G1 X196.189 Y75.836 E3.81796
G1 X196.199 Y76.2 E3.83249
G1 X196.26 Y79.078 E3.94738
G1 X196.389 Y81.687 E4.05164
G1 X196.597 Y84.339 E4.15781
G1 X196.878 Y86.974 E4.26358
G1 X197.235 Y89.612 E4.36982
G1 X197.668 Y92.24 E4.47613
G1 X198.063 Y94.314 E4.56039
G1 X198.165 Y95.011 E4.58851
G1 X198.195 Y95.661 E4.61448
G1 X198.197 Y95.924 E4.62498
G1 X198.189 Y96.514 E4.64853
G1 X198.085 Y97.564 E4.69064
G1 X197.838 Y98.89 E4.74447
G1 X197.775 Y99.206 E4.75733
G1 X197.33 Y101.808 E4.86269
G1 X196.955 Y104.452 E4.96928
G1 X196.656 Y107.092 E5.07532
G1 X196.431 Y109.744 E5.18155
G1 X196.285 Y112.343 E5.28544
G1 X196.2 Y116.402 E5.44748
G1 X196.2 Y180.716 E8.01439
G1 X196.238 Y183.37 E8.12033
G1 X196.35 Y186.021 E8.22623
G1 X196.536 Y188.64 E8.33102
G1 X196.801 Y191.31 E8.43811
G1 X197.136 Y193.933 E8.54365
G1 X197.548 Y196.55 E8.64939
G1 X198.085 Y199.428 E8.76624
G1 X198.187 Y200.385 E8.80465
G1 X198.197 Y200.924 E8.82617
G1 X198.189 Y201.514 E8.84972
G1 X198.085 Y202.564 E8.89183
G1 X197.838 Y203.89 E8.94566
G1 X197.775 Y204.206 E8.95853
G1 X197.33 Y206.808 E9.06388
G1 X196.955 Y209.452 E9.17047
G1 X196.656 Y212.092 E9.27651
G1 X196.431 Y214.744 E9.38274
G1 X196.285 Y217.343 E9.48663
G1 X196.2 Y221.402 E9.64867
G1 X196.199 Y225.349 E9.80621
G1 X196.189 Y226.076 E9.83522
G1 X196.14 Y226.779 E9.86335
G1 X196.011 Y227.471 E9.89145
G1 X195.804 Y228.144 E9.91955
G1 X195.523 Y228.789 E9.94763
G1 X195.17 Y229.398 E9.97572
G1 X194.75 Y229.963 E10.00382
G1 X194.269 Y230.477 E10.03192
G1 X193.733 Y230.934 E10.06003
G1 X193.149 Y231.326 E10.0881
G1 X192.524 Y231.65 E10.1162
G1 X191.866 Y231.9 E10.1443
G1 X191.184 Y232.075 E10.1724
G1 X190.164 Y232.189 E10.21336
G1 X189.67 Y232.2 E10.23308
G1 X110.627 Y232.199 E13.38786
G1 X109.929 Y232.19 E13.41572
G1 X109.227 Y232.141 E13.44381
G1 X108.535 Y232.013 E13.47189
G1 X107.861 Y231.807 E13.50002
G1 X107.216 Y231.526 E13.5281
G1 X106.606 Y231.174 E13.55621
G1 X106.041 Y230.755 E13.58429
G1 X105.526 Y230.274 E13.61241
G1 X105.07 Y229.738 E13.6405
G1 X104.677 Y229.154 E13.6686
G1 X104.352 Y228.529 E13.69671
G1 X104.101 Y227.872 E13.72478
G1 X103.926 Y227.19 E13.75289
G1 X103.811 Y226.159 E13.79429
G1 X103.8 Y225.658 E13.81429
G1 X103.8 Y221.284 E13.98887
G1 X103.762 Y218.63 E14.0948
G1 X103.65 Y215.978 E14.20075
G1 X103.464 Y213.359 E14.30554
G1 X103.2 Y210.692 E14.4125
G1 X102.864 Y208.066 E14.51817
G1 X102.451 Y205.442 E14.62419
G1 X101.914 Y202.562 E14.74112
G1 X101.811 Y201.589 E14.78017
G1 X101.803 Y201.066 E14.80104
G1 X101.812 Y200.471 E14.82479
G1 X101.916 Y199.431 E14.86651
G1 X102.162 Y198.11 E14.92014
G1 X102.225 Y197.794 E14.933
G1 X102.67 Y195.192 E15.03836
G1 X103.045 Y192.548 E15.14494
G1 X103.344 Y189.908 E15.25099
G1 X103.569 Y187.256 E15.35721
G1 X103.715 Y184.657 E15.46111
G1 X103.8 Y180.598 E15.62315
G1 X103.8 Y116.284 E18.19006
G1 X103.762 Y113.63 E18.296
G1 X103.65 Y110.979 E18.4019
G1 X103.464 Y108.356 E18.50685
G1 X103.2 Y105.691 E18.61374
G1 X102.863 Y103.062 E18.71952
G1 X102.452 Y100.447 E18.82517
G1 X101.914 Y97.563 E18.94227
G1 X101.811 Y96.589 E18.98136
G1 X101.803 Y96.066 E19.00224
G1 X101.812 Y95.471 E19.02599
G1 X101.915 Y94.433 E19.06762
G1 X102.141 Y93.221 E19.11683
G1 X102.213 Y92.866 E19.13128
G1 X102.659 Y90.27 E19.23641
G1 X103.038 Y87.621 E19.34322
G1 X103.34 Y84.979 E19.44935
G1 X103.564 Y82.367 E19.55398
G1 X103.718 Y79.68 E19.6614
G1 X103.796 Y76.944 E19.77065
G1 X103.812 Y75.915 E19.81172
G1 X103.862 Y75.213 E19.83981
G1 X103.992 Y74.521 E19.86791
G1 X104.2 Y73.848 E19.89603
G1 X104.482 Y73.204 E19.92409
G1 X104.836 Y72.595 E19.9522
M204 S1500
M205 X15 Y15
G0 F4320 X105.311 Y72.748
M204 S750
M205 X10 Y10
G1 F2400 X105.729 Y72.217 E19.97918
G1 X106.206 Y71.738 E20.00616
G1 X106.737 Y71.319 E20.03315
G1 X107.313 Y70.965 E20.06014
G1 X107.927 Y70.682 E20.08712
G1 X108.57 Y70.473 E20.11411
G1 X109.234 Y70.342 E20.14112
G1 X109.85 Y70.291 E20.16579
G1 X110.33 Y70.28 E20.18495
G1 X189.293 Y70.28 E23.33653
G1 X190.073 Y70.291 E23.36767
G1 X190.747 Y70.34 E23.39464
G1 X191.411 Y70.469 E23.42164
G1 X192.055 Y70.675 E23.44862
G1 X192.67 Y70.956 E23.47561
G1 X193.248 Y71.308 E23.50262
G1 X193.78 Y71.725 E23.5296
G1 X194.259 Y72.202 E23.55658
G1 X194.679 Y72.732 E23.58357
G1 X195.033 Y73.308 E23.61056
G1 X195.316 Y73.922 E23.63754
G1 X195.525 Y74.565 E23.66452
G1 X195.657 Y75.228 E23.69151
G1 X195.709 Y75.85 E23.71642
G1 X195.719 Y76.21 E23.73079
G1 X195.779 Y79.078 E23.84528
G1 X195.91 Y81.712 E23.95054
G1 X196.12 Y84.394 E24.05792
G1 X196.404 Y87.056 E24.16476
G1 X196.759 Y89.676 E24.27029
G1 X197.197 Y92.335 E24.37785
G1 X197.571 Y94.304 E24.45784
G1 X197.593 Y94.411 E24.4622
G1 X197.708 Y95.398 E24.50186
G1 X197.717 Y95.918 E24.52262
G1 X197.709 Y96.508 E24.54617
G1 X197.614 Y97.476 E24.58499
G1 X197.367 Y98.796 E24.63859
G1 X197.306 Y99.104 E24.65112
G1 X196.851 Y101.762 E24.75875
G1 X196.481 Y104.369 E24.86384
G1 X196.18 Y107.034 E24.97088
G1 X195.953 Y109.71 E25.07807
G1 X195.805 Y112.334 E25.18297
G1 X195.72 Y116.392 E25.34497
G1 X195.72 Y180.716 E27.91228
G1 X195.758 Y183.361 E28.01785
G1 X195.871 Y186.041 E28.12491
G1 X196.062 Y188.723 E28.23223
G1 X196.322 Y191.346 E28.33743
G1 X196.661 Y194.001 E28.44426
G1 X197.076 Y196.64 E28.55088
G1 X197.613 Y199.516 E28.66765
G1 X197.708 Y200.399 E28.7031
G1 X197.717 Y200.918 E28.72382
G1 X197.709 Y201.508 E28.74737
G1 X197.614 Y202.476 E28.78619
G1 X197.367 Y203.796 E28.83979
G1 X197.306 Y204.104 E28.85232
G1 X196.851 Y206.762 E28.95995
G1 X196.481 Y209.369 E29.06504
G1 X196.18 Y212.034 E29.17208
G1 X195.953 Y214.71 E29.27927
G1 X195.805 Y217.334 E29.38417
G1 X195.72 Y221.392 E29.54617
G1 X195.719 Y225.343 E29.70386
G1 X195.709 Y226.07 E29.73288
G1 X195.66 Y226.744 E29.75985
G1 X195.532 Y227.408 E29.78684
G1 X195.326 Y228.052 E29.81383
G1 X195.045 Y228.667 E29.84081
G1 X194.694 Y229.245 E29.8678
G1 X194.277 Y229.777 E29.89478
G1 X193.801 Y230.257 E29.92176
G1 X193.271 Y230.677 E29.94875
G1 X192.695 Y231.031 E29.97574
G1 X192.081 Y231.315 E30.00274
G1 X191.438 Y231.525 E30.02973
G1 X190.775 Y231.657 E30.05672
G1 X190.151 Y231.709 E30.08171
G1 X189.67 Y231.72 E30.10091
G1 X110.633 Y231.72 E33.25545
G1 X109.935 Y231.711 E33.28331
G1 X109.261 Y231.662 E33.31028
G1 X108.597 Y231.534 E33.33727
G1 X107.953 Y231.329 E33.36424
G1 X107.337 Y231.049 E33.39125
G1 X106.759 Y230.698 E33.41824
G1 X106.226 Y230.282 E33.44523
G1 X105.746 Y229.805 E33.47224
G1 X105.326 Y229.276 E33.49919
G1 X104.971 Y228.7 E33.5262
G1 X104.687 Y228.087 E33.55316
G1 X104.477 Y227.444 E33.58016
G1 X104.344 Y226.781 E33.60715
G1 X104.291 Y226.146 E33.63258
G1 X104.28 Y225.658 E33.65206
G1 X104.28 Y221.284 E33.82664
G1 X104.242 Y218.639 E33.93222
G1 X104.129 Y215.96 E34.03924
G1 X103.938 Y213.276 E34.14663
G1 X103.678 Y210.653 E34.25184
G1 X103.339 Y207.998 E34.35866
G1 X102.923 Y205.352 E34.46557
G1 X102.386 Y202.474 E34.58242
G1 X102.291 Y201.576 E34.61846
G1 X102.283 Y201.073 E34.63854
G1 X102.292 Y200.478 E34.66229
G1 X102.387 Y199.519 E34.70075
G1 X102.633 Y198.204 E34.75415
G1 X102.694 Y197.896 E34.76668
G1 X103.149 Y195.238 E34.87431
G1 X103.519 Y192.631 E34.9794
G1 X103.82 Y189.966 E35.08644
G1 X104.047 Y187.29 E35.19363
G1 X104.195 Y184.666 E35.29853
G1 X104.28 Y180.608 E35.46053
G1 X104.28 Y116.284 E38.02784
G1 X104.242 Y113.639 E38.13342
G1 X104.129 Y110.959 E38.24047
G1 X103.938 Y108.276 E38.34783
G1 X103.678 Y105.652 E38.45307
G1 X103.339 Y102.999 E38.55982
G1 X102.923 Y100.352 E38.66676
G1 X102.386 Y97.475 E38.78357
G1 X102.291 Y96.576 E38.81966
G1 X102.283 Y96.073 E38.83973
G1 X102.292 Y95.478 E38.86348
G1 X102.387 Y94.521 E38.90187
G1 X102.612 Y93.316 E38.95079
G1 X102.681 Y92.975 E38.96468
G1 X103.133 Y90.346 E39.07115
G1 X103.515 Y87.671 E39.179
G1 X103.816 Y85.042 E39.28461
G1 X104.043 Y82.401 E39.39041
G1 X104.196 Y79.72 E39.49759
G1 X104.277 Y76.903 E39.61007
G1 X104.292 Y75.922 E39.64922
G1 X104.342 Y75.248 E39.6762
G1 X104.471 Y74.584 E39.7032
G1 X104.678 Y73.941 E39.73016
G1 X104.959 Y73.326 E39.75714
G1 X105.311 Y72.748 E39.78415
M204 S1500
M205 X15 Y15
G0 F4320 X105.786 Y72.909
M204 S750
M205 X10 Y10
G1 F2400 X106.201 Y72.412 E39.81
G1 X106.673 Y71.97 E39.8358
G1 X107.196 Y71.589 E39.86163
G1 X107.763 Y71.276 E39.88748
G1 X108.363 Y71.035 E39.91329
G1 X108.989 Y70.87 E39.93912
G1 X109.863 Y70.771 E39.97423
G1 X110.33 Y70.76 E39.99288
G1 X189.293 Y70.76 E43.14446
G1 X190.066 Y70.771 E43.17531
G1 X190.711 Y70.82 E43.20113
G1 X191.346 Y70.948 E43.22699
G1 X191.959 Y71.154 E43.2528
G1 X192.543 Y71.433 E43.27863
G1 X193.088 Y71.783 E43.30448
G1 X193.585 Y72.197 E43.3303
G1 X194.028 Y72.669 E43.35613
G1 X194.409 Y73.192 E43.38196
G1 X194.722 Y73.758 E43.40777
G1 X194.964 Y74.358 E43.4336
G1 X195.13 Y74.984 E43.45944
G1 X195.229 Y75.863 E43.49475
G1 X195.239 Y76.22 E43.509
G1 X195.299 Y79.077 E43.62306
G1 X195.433 Y81.774 E43.73083
G1 X195.642 Y84.446 E43.8378
G1 X195.922 Y87.064 E43.94289
G1 X196.29 Y89.785 E44.05248
G1 X196.718 Y92.385 E44.15765
G1 X197.101 Y94.401 E44.23955
G1 X197.123 Y94.508 E44.24391
G1 X197.228 Y95.412 E44.28023
G1 X197.238 Y95.911 E44.30015
G1 X197.23 Y96.501 E44.3237
G1 X197.142 Y97.388 E44.35928
G1 X196.897 Y98.702 E44.41263
G1 X196.83 Y99.037 E44.42626
G1 X196.377 Y101.686 E44.53353
G1 X196.004 Y104.315 E44.63951
G1 X195.699 Y107.009 E44.74772
G1 X195.476 Y109.644 E44.85326
G1 X195.325 Y112.326 E44.96047
G1 X195.24 Y116.382 E45.12239
G1 X195.24 Y180.716 E47.6901
G1 X195.278 Y183.389 E47.7968
G1 X195.391 Y186.059 E47.90346
G1 X195.583 Y188.768 E48.01185
G1 X195.843 Y191.386 E48.11686
G1 X196.19 Y194.097 E48.22594
G1 X196.599 Y196.701 E48.33115
G1 X197.141 Y199.604 E48.44901
G1 X197.228 Y200.413 E48.48149
G1 X197.238 Y200.911 E48.50137
G1 X197.23 Y201.501 E48.52492
G1 X197.142 Y202.388 E48.5605
G1 X196.897 Y203.702 E48.61384
G1 X196.83 Y204.037 E48.62748
G1 X196.377 Y206.686 E48.73474
G1 X196.004 Y209.315 E48.84072
G1 X195.699 Y212.009 E48.94893
G1 X195.476 Y214.644 E49.05448
G1 X195.325 Y217.326 E49.16169
G1 X195.24 Y221.382 E49.32361
G1 X195.24 Y225.336 E49.48142
G1 X195.23 Y226.063 E49.51044
G1 X195.181 Y226.708 E49.53626
G1 X195.053 Y227.343 E49.56211
G1 X194.847 Y227.956 E49.58792
G1 X194.568 Y228.54 E49.61375
G1 X194.219 Y229.085 E49.63958
G1 X193.805 Y229.583 E49.66543
G1 X193.333 Y230.026 E49.69127
G1 X192.811 Y230.407 E49.71706
G1 X192.245 Y230.721 E49.7429
G1 X191.645 Y230.963 E49.76872
G1 X191.019 Y231.129 E49.79457
G1 X190.137 Y231.229 E49.82999
G1 X189.67 Y231.24 E49.84864
G1 X110.639 Y231.24 E53.00294
G1 X109.941 Y231.231 E53.0308
G1 X109.296 Y231.182 E53.05661
G1 X108.662 Y231.055 E53.08242
G1 X108.048 Y230.85 E53.10826
G1 X107.464 Y230.571 E53.13409
G1 X106.919 Y230.223 E53.1599
G1 X106.42 Y229.809 E53.18578
G1 X105.977 Y229.338 E53.21158
G1 X105.595 Y228.815 E53.23743
G1 X105.281 Y228.25 E53.26323
G1 X105.038 Y227.65 E53.28907
G1 X104.872 Y227.024 E53.31492
G1 X104.771 Y226.133 E53.35071
G1 X104.76 Y225.658 E53.36967
G1 X104.76 Y221.284 E53.54425
G1 X104.722 Y218.611 E53.65094
G1 X104.609 Y215.942 E53.75756
G1 X104.417 Y213.232 E53.866
G1 X104.157 Y210.613 E53.97104
G1 X103.81 Y207.902 E54.08012
G1 X103.4 Y205.291 E54.18561
G1 X102.858 Y202.386 E54.30356
G1 X102.771 Y201.563 E54.33659
G1 X102.763 Y201.081 E54.35583
G1 X102.772 Y200.486 E54.37958
G1 X102.859 Y199.607 E54.41483
G1 X103.103 Y198.298 E54.46798
G1 X103.17 Y197.963 E54.48161
G1 X103.623 Y195.314 E54.58888
G1 X103.996 Y192.685 E54.69486
G1 X104.301 Y189.991 E54.80307
G1 X104.524 Y187.356 E54.90861
G1 X104.675 Y184.674 E55.01582
G1 X104.76 Y180.618 E55.17774
G1 X104.76 Y116.284 E57.74545
G1 X104.722 Y113.611 E57.85215
G1 X104.609 Y110.941 E57.95881
G1 X104.417 Y108.232 E58.0672
G1 X104.157 Y105.612 E58.17229
G1 X103.81 Y102.897 E58.28153
G1 X103.401 Y100.297 E58.38658
G1 X102.858 Y97.387 E58.50473
G1 X102.771 Y96.564 E58.53776
G1 X102.763 Y96.081 E58.55704
G1 X102.772 Y95.486 E58.58079
G1 X102.859 Y94.608 E58.616
G1 X103.082 Y93.411 E58.6646
G1 X103.156 Y93.044 E58.67954
G1 X103.612 Y90.394 E58.78686
G1 X103.988 Y87.76 E58.89306
G1 X104.292 Y85.1 E58.99991
G1 X104.524 Y82.398 E59.10815
G1 X104.676 Y79.763 E59.2135
G1 X104.757 Y76.916 E59.32717
G1 X104.772 Y75.93 E59.36653
G1 X104.821 Y75.284 E59.39239
G1 X104.95 Y74.65 E59.41821
G1 X105.156 Y74.037 E59.44402
G1 X105.436 Y73.453 E59.46987
G1 X105.786 Y72.909 E59.49569
M204 S1500
M205 X15 Y15
G1 F5100 E55.49569
;MESH:slider.stl
G0 F4320 X109.335 Y76.454
G0 X110.454 Y76.454
G0 X111.2 Y77.2
M204 S750
M205 X10 Y10
;TYPE:WALL-INNER
G1 F2040 E59.49569
G1 F2160 X188.8 Y77.2 E62.59287
G1 X188.8 Y224.8 E68.48391
G1 X111.2 Y224.8 E71.58109
G1 X111.2 Y77.2 E77.47213
M204 S1500
M205 X15 Y15
G0 F4320 X110.72 Y76.72
M204 S750
M205 X10 Y10
G1 F2160 X189.28 Y76.72 E80.60763
G1 X189.28 Y225.28 E86.53698
G1 X110.72 Y225.28 E89.67248
G1 X110.72 Y76.72 E95.60183
M204 S1500
M205 X15 Y15
G0 F4320 X110.24 Y76.24
M204 S750
M205 X10 Y10
;TYPE:WALL-OUTER
G1 F2160 X189.76 Y76.24 E98.77564
G1 X189.76 Y95.804 E99.55648
G1 X191.76 Y95.804 E99.63631
G1 X191.76 Y96.196 E99.65195
G1 X189.76 Y96.196 E99.71714
G1 X189.76 Y200.804 E103.89228
G1 X191.76 Y200.804 E103.9721
G1 X191.76 Y201.196 E103.98774
G1 X189.76 Y201.196 E104.05293
G1 X189.76 Y225.76 E105.03334
G1 X110.24 Y225.76 E108.20715
G1 X110.24 Y201.196 E109.18755
G1 X108.24 Y201.196 E109.26738
G1 X108.24 Y200.804 E109.28302
G1 X110.24 Y200.804 E109.34821
G1 X110.24 Y96.196 E113.52335
G1 X108.24 Y96.196 E113.60317
G1 X108.24 Y95.804 E113.61882
G1 X110.24 Y95.804 E113.68401
G1 X110.24 Y76.24 E114.46485
M204 S1500
M205 X15 Y15
G0 F4320 X110.44 Y76.24
G0 X110.768 Y76.768
G0 X111.67 Y77.31
G0 X111.67 Y77.67
M204 S750
M205 X10 Y10
;TYPE:SKIN
G1 F2160 X188.33 Y77.67 E117.52451
G1 X188.33 Y224.33 E123.37803
G1 X111.67 Y224.33 E126.4377
G1 X111.67 Y77.67 E132.29122
M204 S1500
M205 X15 Y15
G0 F4320 X111.67 Y77.31
G0 X188.618 Y77.382
G0 X188.13 Y78.16
M204 S750
M205 X10 Y10
G1 F2160 X187.839 Y77.87 E132.30761
M204 S1500
M205 X15 Y15
G0 F4320 X187.16 Y77.87
M204 S750
M205 X10 Y10
G1 F2160 X188.13 Y78.839 E132.36234
M204 S1500
M205 X15 Y15
G0 F4320 X188.13 Y79.518
M204 S750
M205 X10 Y10
G1 F2160 X186.481 Y77.87 E132.45538
M204 S1500
M205 X15 Y15
G0 F4320 X185.802 Y77.87
M204 S750
M205 X10 Y10
G1 F2160 X188.13 Y80.197 E132.58676
M204 S1500
M205 X15 Y15
G0 F4320 X188.13 Y80.876
M204 S750
M205 X10 Y10
G1 F2160 X185.124 Y77.87 E132.75643
M204 S1500
M205 X15 Y15
G0 F4320 X184.445 Y77.87
M204 S750
M205 X10 Y10
G1 F2160 X188.13 Y81.554 E132.9644
M204 S1500
