;FLAVOR:Marlin
;TIME:1296
;Filament used: 0.98631m
;Layer height: 0.2
;MINX:133.8
;MINY:125.8
;MINZ:0.2
;MAXX:166.2
;MAXY:171.179
;MAXZ:20
;Generated with Cura_SteamEngine 4.10.0
M140 S60
M105
M190 S60
M104 S205
M105
M109 S205
M82 ;absolute extrusion mode
G21 ;metric values
G90 ;absolute positioning
M82 ;set extruder to absolute mode
M107 ;start with the fan off
G28 X0 Y0 ;move X/Y to min endstops
G28 Z0 ;move Z to min endstops
G1 Z10.0 F600 ;move the platform down 10mm
G92 E0 ;zero the extruded length
G1 F200 E3 ;extrude 3mm of feed stock
G92 E0 ;zero the extruded length again
G1 Y-3 F1200 ;move to prime
G1 X10 F1200 ;
G1 Z0.1 F600 ;get ready to prime
G1 X120 E15 F1200 ;prime nozzle 
G1 X120 F3600 ;quick wipe
G92 E0 ;zero the extruded length
G5 ;enable resume from power failure
M117 Printing...
G92 E0
G92 E0
G1 F5100 E-4
;LAYER_COUNT:100
;LAYER:0
M107
M204 S1500
M205 X15 Y15
G0 F4320 X139.365 Y127.901 Z0.2
M204 S750
M205 X10 Y10
;TYPE:SKIRT
G1 F2040 E0
G1 F2400 X139.861 Y127.401 E0.02811
G1 X140.41 Y126.96 E0.05622
G1 X141.006 Y126.585 E0.08432
G1 X141.64 Y126.28 E0.1124
G1 X142.305 Y126.048 E0.14051
G1 X142.991 Y125.893 E0.16858
G1 X143.835 Y125.811 E0.20242
G1 X144.33 Y125.8 E0.22219
G1 X155.293 Y125.8 E0.65974
G1 X156.081 Y125.811 E0.6912
G1 X156.783 Y125.861 E0.71929
G1 X157.475 Y125.99 E0.74738
G1 X158.148 Y126.197 E0.77548
G1 X158.793 Y126.479 E0.80358
G1 X159.402 Y126.832 E0.83167
G1 X159.967 Y127.252 E0.85977
G1 X160.481 Y127.733 E0.88787
G1 X160.937 Y128.27 E0.91599
G1 X161.329 Y128.854 E0.94406
G1 X161.652 Y129.48 E0.97218
G1 X161.902 Y130.137 E1.00023
G1 X162.116 Y131.044 E1.03743
G1 X162.539 Y133.728 E1.14587
G1 X163.024 Y136.319 E1.25108
G1 X163.59 Y138.936 E1.35795
G1 X164.218 Y141.491 E1.46296
G1 X164.928 Y144.056 E1.56918
G1 X165.727 Y146.659 E1.67786
G1 X165.889 Y147.161 E1.69891
G1 X166.068 Y147.842 E1.72701
G1 X166.187 Y148.88 E1.76871
G1 X166.2 Y149.397 E1.78935
G1 X166.199 Y150.293 E1.82512
G1 X166.189 Y151.016 E1.85398
G1 X166.14 Y151.718 E1.88206
G1 X166.011 Y152.41 E1.91016
G1 X165.804 Y153.083 E1.93826
G1 X165.36 Y154.03 E1.98
G1 X164.766 Y155.057 E2.02736
G1 X164.422 Y155.635 E2.0542
G1 X163.137 Y157.941 E2.15956
G1 X161.906 Y160.306 E2.26598
G1 X160.726 Y162.736 E2.3738
G1 X160.139 Y164.016 E2.43
G1 X159.795 Y164.779 E2.4634
G1 X159.523 Y165.344 E2.48843
G1 X159.182 Y165.966 E2.51674
G1 X158.718 Y166.673 E2.55049
G1 X158.411 Y167.084 E2.57097
G1 X158.055 Y167.522 E2.5935
G1 X157.573 Y168.037 E2.62165
G1 X157.088 Y168.496 E2.6483
G1 X156.525 Y168.964 E2.67752
G1 X155.899 Y169.413 E2.70827
G1 X155.194 Y169.839 E2.74115
G1 X154.588 Y170.148 E2.7683
G1 X153.9 Y170.448 E2.79825
G1 X153.313 Y170.659 E2.82315
G1 X152.654 Y170.85 E2.85053
G1 X151.842 Y171.029 E2.88372
G1 X150.969 Y171.139 E2.91884
G1 X150.441 Y171.178 E2.93997
G1 X149.646 Y171.179 E2.9717
G1 X148.751 Y171.11 E3.00753
G1 X148.227 Y171.036 E3.02865
G1 X147.919 Y170.985 E3.04111
G1 X147.424 Y170.871 E3.06138
G1 X146.69 Y170.659 E3.09188
G1 X146.006 Y170.412 E3.1209
G1 X145.481 Y170.182 E3.14378
G1 X144.814 Y169.841 E3.17368
G1 X144.138 Y169.437 E3.20511
G1 X143.845 Y169.231 E3.2194
G1 X143.409 Y168.906 E3.24111
G1 X142.99 Y168.567 E3.26262
G1 X142.459 Y168.069 E3.29167
G1 X142.003 Y167.587 E3.31816
G1 X141.658 Y167.178 E3.33951
G1 X141.425 Y166.871 E3.35489
G1 X141.127 Y166.45 E3.37548
G1 X140.817 Y165.967 E3.39839
G1 X140.516 Y165.423 E3.4232
G1 X140.35 Y165.086 E3.4382
G1 X139.681 Y163.615 E3.50269
G1 X138.552 Y161.223 E3.60826
G1 X137.341 Y158.833 E3.7152
G1 X136.076 Y156.502 E3.82105
G1 X134.797 Y154.294 E3.92289
G1 X134.674 Y154.086 E3.93254
G1 X134.351 Y153.461 E3.96062
G1 X134.101 Y152.803 E3.98871
G1 X133.957 Y152.266 E4.0109
G1 X133.843 Y151.571 E4.03901
G1 X133.802 Y150.778 E4.07071
G1 X133.8 Y150.603 E4.07769
G1 X133.801 Y149.638 E4.11621
G1 X133.812 Y148.966 E4.14303
G1 X133.863 Y148.263 E4.17116
G1 X134.081 Y147.256 E4.21228
G1 X134.349 Y146.381 E4.24881
G1 X134.72 Y145.226 E4.29723
G1 X135.457 Y142.683 E4.4029
G1 X136.119 Y140.132 E4.50809
G1 X136.718 Y137.526 E4.61481
G1 X137.244 Y134.902 E4.72163
G1 X137.682 Y132.333 E4.82564
G1 X137.885 Y131.044 E4.87772
G1 X138.033 Y130.356 E4.90581
G1 X138.259 Y129.689 E4.93392
G1 X138.559 Y129.053 E4.96198
G1 X138.93 Y128.454 E4.9901
G1 X139.365 Y127.901 E5.01819
M204 S1500
M205 X15 Y15
G0 F4320 X139.814 Y128.12
M204 S750
M205 X10 Y10
G1 F2400 X140.303 Y127.652 E5.0452
G1 X140.843 Y127.245 E5.07219
G1 X141.427 Y126.905 E5.09916
G1 X142.047 Y126.636 E5.12613
G1 X142.695 Y126.442 E5.15313
G1 X143.361 Y126.326 E5.18011
G1 X144.17 Y126.282 E5.21245
G1 X144.33 Y126.28 E5.21884
G1 X155.293 Y126.28 E5.65639
G1 X156.074 Y126.291 E5.68757
G1 X156.748 Y126.34 E5.71454
G1 X157.412 Y126.469 E5.74154
G1 X158.056 Y126.675 E5.76852
G1 X158.671 Y126.956 E5.79551
G1 X159.249 Y127.308 E5.82252
G1 X159.781 Y127.725 E5.8495
G1 X160.26 Y128.202 E5.87648
G1 X160.68 Y128.732 E5.90347
G1 X161.034 Y129.308 E5.93045
G1 X161.317 Y129.922 E5.95744
G1 X161.526 Y130.565 E5.98442
G1 X161.642 Y131.119 E6.00701
G1 X162.068 Y133.818 E6.11607
G1 X162.551 Y136.4 E6.22091
G1 X163.123 Y139.044 E6.32888
G1 X163.748 Y141.591 E6.43355
G1 X164.472 Y144.207 E6.54189
G1 X165.251 Y146.746 E6.64789
G1 X165.433 Y147.309 E6.6715
G1 X165.602 Y147.963 E6.69846
G1 X165.707 Y148.894 E6.73586
G1 X165.72 Y149.397 E6.75594
G1 X165.719 Y150.286 E6.79142
G1 X165.709 Y151.009 E6.82028
G1 X165.66 Y151.683 E6.84725
G1 X165.532 Y152.347 E6.87424
G1 X165.326 Y152.991 E6.90123
G1 X164.944 Y153.79 E6.93658
G1 X164.353 Y154.812 E6.98369
G1 X164.011 Y155.387 E7.0104
G1 X162.707 Y157.727 E7.11731
G1 X161.489 Y160.066 E7.22257
G1 X160.305 Y162.504 E7.33074
G1 X159.703 Y163.816 E7.38835
G1 X159.358 Y164.582 E7.42189
G1 X159.092 Y165.133 E7.44631
G1 X158.766 Y165.727 E7.47335
G1 X158.334 Y166.386 E7.5048
G1 X158.027 Y166.797 E7.52527
G1 X157.69 Y167.21 E7.54655
G1 X157.229 Y167.703 E7.57349
G1 X156.764 Y168.142 E7.59901
G1 X156.225 Y168.59 E7.62698
G1 X155.629 Y169.016 E7.65622
G1 X154.968 Y169.416 E7.68706
G1 X154.389 Y169.711 E7.713
G1 X153.729 Y170 E7.74175
G1 X153.171 Y170.2 E7.76541
G1 X152.541 Y170.383 E7.7916
G1 X151.764 Y170.555 E7.82336
G1 X150.915 Y170.662 E7.85751
G1 X150.416 Y170.698 E7.87748
G1 X149.654 Y170.699 E7.90789
G1 X148.818 Y170.635 E7.94136
G1 X148.294 Y170.561 E7.96248
G1 X147.551 Y170.408 E7.99275
G1 X146.843 Y170.204 E8.02216
G1 X146.191 Y169.97 E8.04981
G1 X145.691 Y169.75 E8.07161
G1 X145.053 Y169.425 E8.10019
G1 X144.404 Y169.037 E8.13037
G1 X144.131 Y168.846 E8.14367
G1 X143.695 Y168.521 E8.16537
G1 X143.301 Y168.201 E8.18563
G1 X142.794 Y167.725 E8.21339
G1 X142.357 Y167.263 E8.23877
G1 X142.032 Y166.877 E8.25891
G1 X141.817 Y166.594 E8.27309
G1 X141.519 Y166.173 E8.29368
G1 X141.227 Y165.718 E8.31526
G1 X140.94 Y165.198 E8.33896
G1 X140.787 Y164.887 E8.3528
G1 X140.118 Y163.416 E8.41729
G1 X138.985 Y161.016 E8.52322
G1 X137.762 Y158.602 E8.63123
G1 X136.508 Y156.29 E8.7362
G1 X135.21 Y154.05 E8.83953
G1 X135.087 Y153.842 E8.84918
G1 X134.778 Y153.24 E8.87618
G1 X134.542 Y152.607 E8.90315
G1 X134.425 Y152.162 E8.92151
G1 X134.318 Y151.494 E8.94851
G1 X134.282 Y150.765 E8.97764
G1 X134.28 Y150.603 E8.98411
G1 X134.281 Y149.645 E9.02235
G1 X134.292 Y148.973 E9.04917
G1 X134.343 Y148.299 E9.07615
G1 X134.541 Y147.396 E9.11305
G1 X134.806 Y146.528 E9.14927
G1 X135.179 Y145.366 E9.19798
G1 X135.914 Y142.83 E9.30336
G1 X136.592 Y140.219 E9.41103
G1 X137.189 Y137.62 E9.51746
G1 X137.712 Y135.015 E9.62351
G1 X138.155 Y132.413 E9.72885
G1 X138.359 Y131.119 E9.78114
G1 X138.503 Y130.458 E9.80814
G1 X138.725 Y129.82 E9.8351
G1 X139.02 Y129.211 E9.86211
G1 X139.385 Y128.642 E9.88909
G1 X139.814 Y128.12 E9.91605
M204 S1500
M205 X15 Y15
G0 F4320 X140.262 Y128.346
M204 S750
M205 X10 Y10
G1 F2400 X140.742 Y127.912 E9.94188
G1 X141.272 Y127.54 E9.96773
G1 X141.844 Y127.237 E9.99356
G1 X142.449 Y127.007 E10.01939
G1 X143.077 Y126.853 E10.0452
G1 X143.862 Y126.771 E10.0767
G1 X144.33 Y126.76 E10.09539
G1 X155.293 Y126.76 E10.53294
G1 X156.067 Y126.771 E10.56384
G1 X156.712 Y126.82 E10.58966
G1 X157.347 Y126.948 E10.61551
G1 X157.96 Y127.154 E10.64132
G1 X158.544 Y127.433 E10.66715
G1 X159.088 Y127.783 E10.69297
G1 X159.586 Y128.197 E10.71882
G1 X160.029 Y128.669 E10.74465
G1 X160.41 Y129.192 E10.77048
G1 X160.723 Y129.758 E10.79629
G1 X160.965 Y130.358 E10.82212
G1 X161.168 Y131.194 E10.85645
G1 X161.592 Y133.88 E10.96498
G1 X162.085 Y136.517 E11.07206
G1 X162.655 Y139.153 E11.1797
G1 X163.29 Y141.735 E11.28582
G1 X164.009 Y144.335 E11.39349
G1 X164.794 Y146.893 E11.50028
G1 X164.976 Y147.456 E11.5239
G1 X165.137 Y148.083 E11.54973
G1 X165.228 Y148.909 E11.5829
G1 X165.24 Y149.397 E11.60238
G1 X165.239 Y150.279 E11.63759
G1 X165.229 Y151.002 E11.66645
G1 X165.181 Y151.648 E11.6923
G1 X165.053 Y152.282 E11.71811
G1 X164.847 Y152.896 E11.74396
G1 X164.528 Y153.55 E11.77301
G1 X163.941 Y154.567 E11.81987
G1 X163.578 Y155.177 E11.8482
G1 X162.283 Y157.502 E11.95442
G1 X161.049 Y159.872 E12.06107
G1 X159.866 Y162.309 E12.16919
G1 X159.266 Y163.616 E12.22659
G1 X158.92 Y164.385 E12.26024
G1 X158.66 Y164.923 E12.28409
G1 X158.349 Y165.488 E12.30983
G1 X157.949 Y166.099 E12.33898
G1 X157.642 Y166.51 E12.35946
G1 X157.324 Y166.899 E12.37951
G1 X156.885 Y167.368 E12.40515
G1 X156.439 Y167.788 E12.4296
G1 X155.925 Y168.215 E12.45627
G1 X155.359 Y168.619 E12.48403
G1 X154.742 Y168.992 E12.5128
G1 X154.19 Y169.274 E12.53754
G1 X153.557 Y169.551 E12.56512
G1 X153.029 Y169.741 E12.58752
G1 X152.428 Y169.917 E12.61251
G1 X151.686 Y170.081 E12.64284
G1 X150.862 Y170.185 E12.67599
G1 X150.037 Y170.225 E12.70895
G1 X149.375 Y170.207 E12.73539
G1 X148.885 Y170.16 E12.75503
G1 X148.361 Y170.086 E12.77615
G1 X147.678 Y169.945 E12.80399
G1 X146.996 Y169.749 E12.83231
G1 X146.377 Y169.527 E12.85856
G1 X145.901 Y169.319 E12.87929
G1 X145.292 Y169.009 E12.90656
G1 X144.67 Y168.638 E12.93547
G1 X144.418 Y168.461 E12.94776
G1 X143.982 Y168.136 E12.96947
G1 X143.352 Y167.599 E13.00251
G1 X142.921 Y167.168 E13.02683
G1 X142.492 Y166.684 E13.05265
G1 X142.209 Y166.316 E13.07118
G1 X141.911 Y165.895 E13.09176
G1 X141.637 Y165.469 E13.11198
G1 X141.364 Y164.973 E13.13457
G1 X141.224 Y164.688 E13.14725
G1 X140.571 Y163.253 E13.21017
G1 X139.418 Y160.809 E13.31803
G1 X138.183 Y158.37 E13.42714
G1 X136.915 Y156.035 E13.53319
G1 X135.6 Y153.764 E13.63793
G1 X135.501 Y153.597 E13.64568
G1 X135.206 Y153.021 E13.67151
G1 X134.985 Y152.413 E13.69733
G1 X134.894 Y152.058 E13.71196
G1 X134.793 Y151.419 E13.73778
G1 X134.762 Y150.751 E13.76447
G1 X134.76 Y150.603 E13.77037
G1 X134.761 Y149.653 E13.80829
G1 X134.772 Y148.981 E13.83512
G1 X134.822 Y148.336 E13.86094
G1 X135 Y147.536 E13.89365
G1 X135.263 Y146.675 E13.92958
G1 X135.639 Y145.506 E13.97859
G1 X136.379 Y142.951 E14.08476
G1 X137.057 Y140.338 E14.1925
G1 X137.652 Y137.748 E14.29857
G1 X138.187 Y135.083 E14.40705
G1 X138.628 Y132.494 E14.51187
G1 X138.833 Y131.194 E14.5644
G1 X138.973 Y130.562 E14.59024
G1 X139.19 Y129.952 E14.61608
G1 X139.48 Y129.374 E14.64189
G1 X139.839 Y128.836 E14.6677
G1 X140.262 Y128.346 E14.69354
M204 S1500
M205 X15 Y15
G1 F5100 E10.69354
;MESH:female_ear.stl
G0 F4320 X143.335 Y132.454
G0 X144.454 Y132.454
G0 X145.2 Y133.2
M204 S750
M205 X10 Y10
;TYPE:WALL-INNER
G1 F2040 E14.69354
G1 F2160 X154.8 Y133.2 E15.0767
G1 X154.8 Y142.8 E15.45985
G1 X145.2 Y142.8 E15.84301
G1 X145.2 Y133.2 E16.22617
M204 S1500
M205 X15 Y15
G0 F4320 X144.72 Y132.72
M204 S750
M205 X10 Y10
G1 F2160 X155.28 Y132.72 E16.64764
G1 X155.28 Y143.28 E17.06911
G1 X144.72 Y143.28 E17.49058
G1 X144.72 Y132.72 E17.91206
M204 S1500
M205 X15 Y15
G0 F4320 X144.24 Y132.24
M204 S750
M205 X10 Y10
;TYPE:WALL-OUTER
G1 F2160 X155.76 Y132.24 E18.37184
G1 X155.76 Y143.76 E18.83163
G1 X144.24 Y143.76 E19.29142
G1 X144.24 Y132.24 E19.75121
M204 S1500
M205 X15 Y15
G0 F4320 X144.44 Y132.24
G0 X144.768 Y132.768
G0 X145.67 Y133.31
G0 X145.67 Y133.67
M204 S750
M205 X10 Y10
;TYPE:SKIN
G1 F2160 X154.33 Y133.67 E20.09685
G1 X154.33 Y142.33 E20.44249
G1 X145.67 Y142.33 E20.78813
G1 X145.67 Y133.67 E21.13377
M204 S1500
M205 X15 Y15
G0 F4320 X145.67 Y133.31
G0 X154.618 Y133.382
G0 X154.69 Y134.443
G0 X154.129 Y134.443
M204 S750
M205 X10 Y10
G1 F2160 X153.556 Y133.87 E21.16611
M204 S1500
M205 X15 Y15
G0 F4320 X152.877 Y133.87
M204 S750
M205 X10 Y10
G1 F2160 X154.129 Y135.122 E21.23678
M204 S1500
M205 X15 Y15
G0 F4320 X154.129 Y135.801
M204 S750
M205 X10 Y10
G1 F2160 X152.198 Y133.87 E21.34577
M204 S1500
M205 X15 Y15
G0 F4320 X151.519 Y133.87
M204 S750
M205 X10 Y10
G1 F2160 X154.129 Y136.48 E21.49309
M204 S1500
M205 X15 Y15
G0 F4320 X154.129 Y137.158
M204 S750
M205 X10 Y10
G1 F2160 X150.84 Y133.87 E21.67871
M204 S1500
M205 X15 Y15
G0 F4320 X150.161 Y133.87
M204 S750
M205 X10 Y10
G1 F2160 X154.129 Y137.837 E21.90265
M204 S1500
M205 X15 Y15
G0 F4320 X154.129 Y138.516
M204 S750
M205 X10 Y10
G1 F2160 X149.483 Y133.87 E22.16489
M204 S1500
M205 X15 Y15
G0 F4320 X148.804 Y133.87
M204 S750
M205 X10 Y10
G1 F2160 X154.129 Y139.195 E22.46546
M204 S1500
M205 X15 Y15
G0 F4320 X154.129 Y139.874
M204 S750
M205 X10 Y10
G1 F2160 X148.125 Y133.87 E22.80435
M204 S1500
M205 X15 Y15
G0 F4320 X147.446 Y133.87
M204 S750
M205 X10 Y10
G1 F2160 X154.129 Y140.553 E23.18157
M204 S1500
M205 X15 Y15
G0 F4320 X154.129 Y141.231
M204 S750
M205 X10 Y10
G1 F2160 X146.767 Y133.87 E23.59708
M204 S1500
M205 X15 Y15
G0 F4320 X146.088 Y133.87
M204 S750
M205 X10 Y10
G1 F2160 X154.129 Y141.91 E24.05092
M204 S1500
M205 X15 Y15
G0 F4320 X153.669 Y142.129
M204 S750
M205 X10 Y10
G1 F2160 X145.869 Y134.329 E24.49119
M204 S1500
M205 X15 Y15
G0 F4320 X145.869 Y135.007
M204 S750
M205 X10 Y10
G1 F2160 X152.991 Y142.129 E24.89318
M204 S1500
M205 X15 Y15
G0 F4320 X152.312 Y142.129
M204 S750
M205 X10 Y10
G1 F2160 X145.869 Y135.686 E25.25685
M204 S1500
M205 X15 Y15
G0 F4320 X145.869 Y136.365
M204 S750
M205 X10 Y10
G1 F2160 X151.633 Y142.129 E25.5822
M204 S1500
M205 X15 Y15
G0 F4320 X150.954 Y142.129
M204 S750
M205 X10 Y10
G1 F2160 X145.869 Y137.044 E25.86922
M204 S1500
M205 X15 Y15
G0 F4320 X145.869 Y137.723
M204 S750
M205 X10 Y10
G1 F2160 X150.275 Y142.129 E26.11791
M204 S1500
M205 X15 Y15
G0 F4320 X149.596 Y142.129
M204 S750
M205 X10 Y10
G1 F2160 X145.869 Y138.402 E26.32828
M204 S1500
M205 X15 Y15
G0 F4320 X145.869 Y139.08
M204 S750
M205 X10 Y10
G1 F2160 X148.918 Y142.129 E26.50038
M204 S1500
M205 X15 Y15
G0 F4320 X148.239 Y142.129
M204 S750
M205 X10 Y10
G1 F2160 X145.869 Y139.759 E26.63415
M204 S1500
M205 X15 Y15
G0 F4320 X145.869 Y140.438
M204 S750
M205 X10 Y10
G1 F2160 X147.56 Y142.129 E26.7296
M204 S1500
M205 X15 Y15
G0 F4320 X146.881 Y142.129
M204 S750
M205 X10 Y10
G1 F2160 X145.869 Y141.117 E26.78672
M204 S1500
M205 X15 Y15
G0 F4320 X145.869 Y141.796
M204 S750
M205 X10 Y10
G1 F2160 X146.202 Y142.129 E26.80552
M204 S1500
M205 X15 Y15
G0 F4320 X146.202 Y143.07
G1 F5100 E22.80552
;MESH:rod_section.stl
G0 F4320 X144.454 Y143.546
G0 X144.454 Y144.665
G0 X144.454 Y148.402
G0 X144.454 Y149.527
G0 X140.72 Y149.787
M204 S750
M205 X10 Y10
;TYPE:WALL-INNER
G1 F2040 E26.80552
G1 F2160 X159.28 Y149.787 E27.54629
G1 X159.28 Y150.213 E27.56329
G1 X140.72 Y150.213 E28.22209
G1 X140.72 Y149.787 E28.2391
M204 S1500
M205 X15 Y15
G0 F4320 X140.24 Y149.307
M204 S750
M205 X10 Y10
;TYPE:WALL-OUTER
G1 F2160 X159.76 Y149.307 E29.01818
G1 X159.76 Y150.693 E29.0735
G1 X140.24 Y150.693 E29.85259
G1 X140.24 Y149.307 E29.9079
M204 S1500
M205 X15 Y15
G0 F4320 X140.44 Y149.307
G0 X140.768 Y149.835
G0 X140.92 Y149.658
G1 F5100 E25.9079
;MESH:rod_section.stl(1)
G0 F4320 X147.726 Y150.473
G0 X147.726 Y151.598
G0 X147.512 Y155.974
G0 X148.117 Y157.533
G0 X147.726 Y158.079
M204 S750
M205 X10 Y10
;TYPE:WALL-INNER
G1 F2040 E29.9079
G1 F2160 X147.592 Y158.231 E29.91599
G1 X147.313 Y158.547 E29.93282
G1 X147.1 Y158.907 E29.94951
G1 X146.994 Y159.085 E29.95778
G1 X146.93 Y159.264 E29.96537
G1 X146.782 Y159.673 E29.98273
G1 X146.715 Y160.096 E29.99982
G1 X146.684 Y160.292 E30.00774
G1 X146.69 Y160.484 E30.01541
G1 X146.705 Y160.917 E30.0327
G1 X146.8 Y161.346 E30.05024
G1 X146.84 Y161.526 E30.0576
